build/assets/images/svg/food/fish/moreprodukty.svg

<svg width="28" height="28" viewBox="0 0 28 28" fill="none" xmlns="http://www.w3.org/2000/svg">
<path d="M16.6909 4.6014C16.5229 4.5314 16.3269 4.5664 16.1939 4.6959C16.1554 4.7414 16.1204 4.7904 16.0994 4.8464C16.0399 4.9864 16.0539 5.1474 16.1379 5.2734C16.2219 5.3994 16.3654 5.4764 16.5159 5.4729C16.6384 5.4729 16.7539 5.4274 16.8379 5.3399C16.8764 5.2944 16.9114 5.2454 16.9394 5.1894C16.9604 5.1334 16.9709 5.0774 16.9709 5.0179C16.9709 4.9584 16.9604 4.8989 16.9359 4.8464C16.8974 4.7309 16.8064 4.6434 16.6909 4.6014Z" fill="#203686"/>
<path d="M19.7886 0.0159557H16.0646C15.8126 0.0159557 15.6096 0.218956 15.6096 0.470956C15.6096 0.722956 15.8126 0.925956 16.0646 0.925956H19.7886C22.7146 0.890956 25.1156 3.22896 25.1611 6.15496C25.1191 9.08096 22.7146 11.419 19.7886 11.384C18.1401 11.391 16.5791 10.649 15.5501 9.36446L23.4811 6.81296C23.6736 6.74996 23.8031 6.56796 23.7961 6.36496C23.7891 6.16196 23.6491 5.98696 23.4531 5.93796L20.6846 5.24496L22.7251 3.54396C22.8721 3.42146 22.9281 3.21846 22.8616 3.03996C22.7951 2.86146 22.6236 2.73896 22.4346 2.73896H11.0631C10.3981 2.74246 9.78906 3.10646 9.47406 3.69096C4.32556 4.78996 0.601562 9.19646 0.601562 14.226C0.601562 14.4255 0.608558 14.625 0.619058 14.8245C0.598058 14.9155 0.605057 15.0065 0.640057 15.094C1.10206 20.5855 5.90406 24.929 11.7771 25.0235L13.5726 26.8225C13.8561 27.12 14.2446 27.295 14.6576 27.302C14.6716 27.302 14.6856 27.302 14.6961 27.302C15.1371 27.2775 15.5501 27.0675 15.8266 26.7245L17.1391 25.0865C17.1461 25.076 17.1496 25.0655 17.1566 25.055C17.2161 25.0165 17.2756 24.971 17.3281 24.922C17.6816 24.5965 17.8811 24.1415 17.8811 23.6655C17.8811 23.186 17.6816 22.731 17.3281 22.4055C17.2756 22.36 17.2161 22.318 17.1566 22.2795C17.1496 22.269 17.1461 22.255 17.1391 22.2445L15.8091 20.589C15.5326 20.253 15.1266 20.05 14.6926 20.0255C14.2691 20.022 13.8631 20.197 13.5691 20.505L11.7876 22.2865C9.90106 22.2165 8.39956 21.0195 7.59806 19.112H7.87456C8.16856 19.119 8.44856 19.2555 8.63056 19.4865L9.34457 20.3195C9.50907 20.5085 9.79606 20.5295 9.98506 20.3685C10.1741 20.204 10.1986 19.917 10.0341 19.728L9.32006 18.895C8.96306 18.4645 8.43106 18.2125 7.87106 18.202H7.27956C7.19906 17.901 7.13256 17.6 7.08356 17.292H8.02157C8.38207 17.292 8.72856 17.4355 8.98756 17.691L9.82056 18.524C9.99906 18.699 10.2826 18.699 10.4611 18.5205C10.6361 18.3455 10.6396 18.0585 10.4646 17.88L9.63156 17.047C9.20456 16.62 8.62706 16.3785 8.02506 16.382H6.98207C6.96807 16.1615 6.96107 15.9375 6.96107 15.71C6.96107 15.6295 6.96456 15.5525 6.96806 15.472H8.17906C8.60606 15.4685 9.02256 15.6155 9.35156 15.892L10.3036 16.725C10.4926 16.8895 10.7796 16.872 10.9441 16.683C11.1086 16.494 11.0911 16.207 10.9021 16.0425L9.95356 15.2095C9.46006 14.786 8.83356 14.5585 8.18256 14.5655H7.02056C7.18156 12.9485 7.70306 11.7165 8.57456 10.873C8.57806 10.873 8.57806 10.8765 8.58156 10.88L11.3676 12.273C11.7666 12.4725 12.0431 12.8575 12.1096 13.302L12.4281 15.542C12.4596 15.766 12.6521 15.9305 12.8761 15.934C12.8971 15.934 12.9181 15.934 12.9426 15.9305C13.1911 15.8955 13.3626 15.6645 13.3276 15.416L13.0091 13.176C12.9041 12.4375 12.4421 11.797 11.7736 11.4645L9.37607 10.2675C9.79257 10.026 10.2441 9.84396 10.7131 9.72846C10.7306 9.72146 10.7481 9.71446 10.7656 9.70396C11.1576 10.1975 11.7806 10.4495 12.4071 10.3725C12.4351 10.369 12.4631 10.362 12.4911 10.355L14.6331 9.66546C15.8231 11.328 17.7446 12.308 19.7886 12.301C23.2151 12.336 26.0256 9.58846 26.0676 6.16196C26.0291 2.72846 23.2186 -0.0190443 19.7886 0.0159557ZM15.1336 26.1365C15.0181 26.28 14.8536 26.3745 14.6716 26.392C14.4966 26.3885 14.3321 26.3115 14.2201 26.1785L13.1701 25.1285L15.7671 25.3455L15.1336 26.1365ZM14.2166 21.149C14.3286 21.023 14.4861 20.946 14.6541 20.9355H14.6681C14.8431 20.953 15.0041 21.037 15.1161 21.1735L15.7636 21.982L13.1666 22.199L14.2166 21.149ZM12.4246 23.1755L16.1066 22.8675C16.3306 22.85 16.5511 22.9235 16.7156 23.0775C16.9676 23.3085 17.0446 23.676 16.9081 23.9875C16.7716 24.3025 16.4496 24.4915 16.1101 24.4635L12.4246 24.1555V23.1755ZM6.05806 15.717C6.05806 19.9345 8.28056 22.927 11.5146 23.186V24.11C6.60056 23.9105 2.55806 20.491 1.68656 16.032C2.18006 16.326 2.74706 16.48 3.32106 16.4835C3.34206 16.4835 3.36656 16.4835 3.38756 16.4835C3.63606 16.48 3.83557 16.2735 3.83207 16.025C3.82857 15.7765 3.62556 15.5735 3.37706 15.5735C3.35606 15.5735 3.33856 15.5735 3.32106 15.5735C2.63856 15.549 1.99456 15.262 1.52206 14.7685C1.51156 14.59 1.50456 14.4115 1.50456 14.2295C1.50806 13.4595 1.60607 12.6895 1.79857 11.944C2.37607 12.5215 3.14256 12.875 3.96156 12.931C3.96856 12.931 3.97907 12.931 3.98607 12.931C4.23107 12.931 4.43406 12.735 4.44106 12.49C4.44806 12.245 4.25906 12.0385 4.01056 12.0245C3.25806 11.9475 2.57556 11.5555 2.12756 10.9465C2.12406 10.9395 2.11356 10.936 2.11006 10.929C2.46356 10.005 2.95356 9.14046 3.56606 8.36696C3.96856 9.12996 4.64056 9.71096 5.45256 9.99796C5.60656 10.0505 5.77806 10.0155 5.90056 9.90696C6.02306 9.79846 6.07906 9.63396 6.04406 9.47646C6.01256 9.31546 5.89706 9.18596 5.74306 9.13696C5.04306 8.86746 4.48656 8.31446 4.21706 7.61796C5.58206 6.18996 7.32506 5.17496 9.23956 4.69196V4.95446C9.23956 6.34046 9.58956 7.70196 10.2616 8.91296C8.29106 9.47646 6.05806 11.132 6.05806 15.717ZM15.0286 8.57696C14.8886 8.31446 14.7696 8.04146 14.6786 7.76146C14.5981 7.52346 14.3426 7.39396 14.1046 7.47446C13.8666 7.55496 13.7371 7.81046 13.8176 8.04846C13.9121 8.32496 14.0241 8.59796 14.1571 8.86046L12.2636 9.46946C11.9346 9.49746 11.6126 9.34346 11.4306 9.06696L11.3746 8.98996C10.5766 7.79646 10.1496 6.38946 10.1531 4.95446V4.56596C10.1531 4.06546 10.5591 3.65596 11.0631 3.65596H21.1746L19.4106 5.12596C19.2776 5.23446 19.2216 5.40946 19.2601 5.57746C19.2986 5.74546 19.4281 5.87496 19.5926 5.91696L21.6856 6.43846L15.0286 8.57696Z" fill="#203686"/>
</svg>

<svg width="28" height="28" fill="none" xmlns="http://www.w3.org/2000/svg"><path d="M16.69 4.601a.46.46 0 00-.496.095.52.52 0 00-.095.15.452.452 0 00.039.427.446.446 0 00.378.2.441.441 0 00.322-.133.756.756 0 00.101-.15.48.48 0 00.032-.172c0-.06-.01-.12-.035-.172a.396.396 0 00-.245-.245z" fill="#203686"/><path d="M19.789.016h-3.724a.454.454 0 100 .91h3.724a5.31 5.31 0 015.372 5.229 5.308 5.308 0 01-5.372 5.229 5.398 5.398 0 01-4.239-2.02l7.931-2.551a.456.456 0 00-.028-.875l-2.768-.693 2.04-1.701a.453.453 0 00.137-.504.46.46 0 00-.427-.301H11.063a1.813 1.813 0 00-1.589.952C4.326 4.79.602 9.196.602 14.226c0 .2.007.399.017.598a.445.445 0 00.021.27c.462 5.492 5.264 9.835 11.137 9.93l1.796 1.799c.283.297.672.472 1.085.479h.038a1.566 1.566 0 001.13-.578l1.313-1.637c.007-.011.01-.021.018-.032a1.25 1.25 0 00.171-.133 1.707 1.707 0 000-2.517 1.544 1.544 0 00-.171-.126c-.007-.01-.01-.024-.018-.035l-1.33-1.655a1.56 1.56 0 00-1.116-.563 1.538 1.538 0 00-1.124.479l-1.781 1.782c-1.887-.07-3.388-1.267-4.19-3.175h.277a.994.994 0 01.756.375l.714.833a.455.455 0 00.69-.591l-.715-.834a1.93 1.93 0 00-1.449-.693H7.28a8.957 8.957 0 01-.196-.91h.938c.36 0 .707.143.966.399l.833.833a.456.456 0 00.644-.644l-.833-.833a2.256 2.256 0 00-1.607-.665H6.982a10.61 10.61 0 01-.02-.672c0-.08.003-.158.006-.238H8.18c.427-.003.844.144 1.173.42l.952.833a.454.454 0 00.598-.683l-.948-.833a2.668 2.668 0 00-1.771-.643H7.02c.16-1.618.682-2.85 1.554-3.693.003 0 .003.004.007.007l2.786 1.393c.399.2.675.585.742 1.029l.318 2.24a.458.458 0 00.448.392c.021 0 .042 0 .067-.003a.454.454 0 00.385-.515l-.319-2.24a2.269 2.269 0 00-1.235-1.712l-2.398-1.197a5.1 5.1 0 011.337-.539.413.413 0 00.053-.024 1.813 1.813 0 001.641.668.717.717 0 00.084-.017l2.142-.69a6.31 6.31 0 005.156 2.636 6.217 6.217 0 006.279-6.139 6.214 6.214 0 00-6.28-6.146zm-4.655 26.12a.679.679 0 01-.462.256.604.604 0 01-.452-.213l-1.05-1.05 2.597.216-.633.792zm-.917-4.987a.64.64 0 01.437-.213h.014a.662.662 0 01.448.238l.648.808-2.597.217 1.05-1.05zm-1.792 2.026l3.682-.308a.801.801 0 01.802 1.12.797.797 0 01-.799.476l-3.685-.308v-.98zm-6.367-7.458c0 4.217 2.223 7.21 5.457 7.469v.924c-4.914-.2-8.957-3.619-9.828-8.078.493.294 1.06.448 1.634.451h.067a.453.453 0 00.444-.458.458.458 0 00-.455-.451h-.056a2.616 2.616 0 01-1.799-.806 9.14 9.14 0 01-.017-.539c.003-.77.101-1.54.294-2.285a3.386 3.386 0 002.163.987h.024a.454.454 0 00.024-.906 2.675 2.675 0 01-1.882-1.079c-.004-.006-.014-.01-.018-.017a9.72 9.72 0 011.456-2.562 3.42 3.42 0 001.887 1.631.455.455 0 10.29-.861 2.662 2.662 0 01-1.526-1.519A10.508 10.508 0 019.24 4.692v.262c0 1.386.35 2.748 1.022 3.959-1.97.563-4.204 2.219-4.204 6.804zm8.97-7.14a5.065 5.065 0 01-.35-.816.453.453 0 10-.86.287c.094.277.206.55.34.812l-1.894.61a.907.907 0 01-.833-.403l-.056-.077a7.236 7.236 0 01-1.222-4.036v-.388c0-.5.406-.91.91-.91h10.112l-1.764 1.47a.456.456 0 00.182.791l2.093.521-6.657 2.139z" fill="#203686"/></svg>
